!!!OTL: Jagd - und Liebeslied des Herzogs Ulrich von Wuertemberg. (c. 1510.)
!!!ARE: Europa, Mitteleuropa, Deutschland
!!!SCT: A0443
!!!TXL: @@GMH
!!!YEM: Copyright 1995, estate of Helmut Schaffrath.
**kern	**text
!! Mixed meters:  4/2; 6/2
*M6/2	*
*met(c|)	*
*clefC3	*
*k[b-]	*
*F:ion	*
!LO:TX:a:t=jon. mit mixolyd. Schluß.	!
{1c	Jch
=1	=1
*M4/2	*
2A	ſchell
2B-	mein
2c	horn
2A	in
=2	=2
*lig	*
2d	jam-
2c	.
*Xlig	*
1B-	-mers
=3	=3
*M6/2	*
1A	thon,
2r}	.
{2c	mein
2d	freud
2f	ſeind
=4	=4
*M4/2	*
2e	mir
4d	ver-
*lig	*
2c	-ſchwun-
8B-L	.
8AJ	.
2G	.
*Xlig	*
=5	=5
0F}	-den,}
{1c	Und
=6	=6
*M4/2	*
2A	hab
2B-	ge-
2c	-jagt
2A	on
=2	=7
*lig	*
2d	a-
2c	.
*Xlig	*
1B-	-be-
=8	=8
*M6/2	*
1A	-lon,
2r}	.
{2c	es
2d	lauft
2f	noch
=9	=9
*M4/2	*
2e	vor
4d	den
*lig	*
2c	hun-
8B-L	.
8AJ	.
2G	.
*Xlig	*
=10	=10
1F	-den}
2r}	.
{2F	eyn
2A	e-
2B-	-dels
=11	=11
*M6/2	*
1c	gwildt
2r	.
2c	in
2d	di-
2e	-ſem
=12	=12
*M4/2	*
1f	gfild
2r}	.
{2c	als
=13	=13
2d	ichs
2d	het
2c	auß-
2f	-er-
=14	=14
*lig	*
4e	-ko-
4f	.
2d	.
*Xlig	*
2c	-ren;
4r}	.
{4f	es
=15	=15
2e	ſcheucht
2d	ab
2c	mir,
4r	.
4d	als
=16	=16
2c	ich
2B-	es
1A	ſpür,
=17	=17
2r}	.
{2c	mein
2d	ja-
2f	-gen
=18	=18
2e	iſt
4d	ver-
*lig	*
2g	-lo-
8fL	.
8eJ	.
2d	.
*Xlig	*
=19	=19
*M6/2	*
0cll}	-ren.
==	==
!!!GTL: Jägerlieder und Jägerromanzen
!!!AGN: Romanze, Ballade, Lied, Jaegerlied
!! Arnt von Aich 1519 und Forster IV 1556 No. 12.
!!!ONB: ESAC (Essen Associative Code) Database: ALTDEU
!!!AMT: irregular
!!!AIN: vox
!!!EED: Helmut Schaffrath
!!!EEV: 1.0
!!!RDF**kern: l = terminal long
!!!AMD: Ionian
!!!URL-scan: https://rosdok.uni-rostock.de/mcrviewer/recordIdentifier/rosdok_ppn738218359/iview2/phys_0621.iview2?x=-27.342981878423416&y=70.28697178512812&scale=0.6340035897852&rotation=0&layout=singlePageLayout&logicalDiv=log_0016
!!!ENC: Anna Maria Matuszewska
!!!EEV: 2024/18/03
*-	*-
